<?xml version="1.0" encoding="UTF-8"?>
<map version="1.10" tiledversion="1.11.2" orientation="isometric" renderorder="right-down" width="20" height="20" tilewidth="64" tileheight="32" infinite="0" nextlayerid="5" nextobjectid="34">
 <tileset firstgid="1" source="backgroundTower.tsx"/>
 <tileset firstgid="2" source="iso-64x64-building.tsx"/>
 <objectgroup id="3" name="Collision" class="Collision">
  <object id="3" name="刷怪点.1" x="608" y="608">
   <properties>
    <property name="enemyGroupID" type="int" value="1"/>
    <property name="patrolRadius" type="float" value="500"/>
    <property name="respawnSecond" type="int" value="10"/>
    <property name="spawnRadius" type="float" value="500"/>
   </properties>
   <point/>
  </object>
  <object id="20" x="31.5" y="324.45" width="601" height="12.2167">
   <properties>
    <property name="blocked" type="bool" value="true"/>
   </properties>
  </object>
  <object id="25" x="352.196" y="62.1668" width="14.471" height="558.333">
   <properties>
    <property name="blocked" type="bool" value="true"/>
   </properties>
  </object>
  <object id="26" x="18.1667" y="239.225" width="601" height="12.2167">
   <properties>
    <property name="blocked" type="bool" value="true"/>
   </properties>
  </object>
  <object id="27" x="27.8333" y="134.892" width="601" height="12.2167">
   <properties>
    <property name="blocked" type="bool" value="true"/>
   </properties>
  </object>
  <object id="28" x="16.8333" y="47.225" width="601" height="12.2167">
   <properties>
    <property name="blocked" type="bool" value="true"/>
   </properties>
  </object>
  <object id="29" x="24.5" y="394.225" width="601" height="12.2167">
   <properties>
    <property name="blocked" type="bool" value="true"/>
   </properties>
  </object>
  <object id="30" x="34.1667" y="483.225" width="601" height="12.2167">
   <properties>
    <property name="blocked" type="bool" value="true"/>
   </properties>
  </object>
  <object id="31" x="210.764" y="50.8335" width="14.471" height="558.333">
   <properties>
    <property name="blocked" type="bool" value="true"/>
   </properties>
  </object>
  <object id="32" x="97.4312" y="37.5002" width="14.471" height="558.333">
   <properties>
    <property name="blocked" type="bool" value="true"/>
   </properties>
  </object>
  <object id="33" x="451.098" y="57.1668" width="14.471" height="558.333">
   <properties>
    <property name="blocked" type="bool" value="true"/>
   </properties>
  </object>
 </objectgroup>
 <layer id="4" name="Ground.1" class="Ground" width="20" height="20">
  <data encoding="csv">
0,0,0,0,0,0,0,0,0,0,0,0,0,0,0,0,0,0,0,0,
0,0,0,0,0,0,0,0,0,0,0,0,0,0,0,0,0,0,0,0,
0,0,0,0,0,0,0,0,0,0,0,0,0,0,0,0,0,0,0,0,
0,0,0,0,0,0,0,0,0,0,0,0,0,0,0,0,0,0,0,0,
0,0,0,0,0,0,0,0,0,0,0,0,0,0,0,0,0,0,0,0,
0,0,0,0,0,0,0,0,0,0,0,0,0,0,0,0,0,0,0,0,
0,0,0,0,0,0,0,0,0,0,0,0,0,0,0,0,0,0,0,0,
0,0,0,0,0,0,0,0,0,0,0,0,0,0,0,0,0,0,0,0,
0,0,0,0,0,0,0,0,0,0,0,0,0,0,0,0,0,0,0,0,
0,0,0,0,0,0,0,0,0,0,0,0,0,0,0,0,0,0,0,0,
0,0,0,0,0,0,0,0,0,0,0,0,0,0,0,0,0,0,0,0,
0,0,0,0,0,0,0,0,0,0,0,0,0,0,0,0,0,0,0,0,
0,0,0,0,0,0,0,0,0,0,0,0,0,0,0,0,0,0,0,0,
0,0,0,0,0,0,0,0,0,0,0,0,0,0,0,0,0,0,0,0,
0,0,0,0,0,0,0,0,0,0,0,0,0,0,0,0,0,0,0,0,
0,0,0,0,0,0,0,0,0,0,0,0,0,0,0,0,0,0,0,0,
0,0,0,0,0,0,0,0,0,0,0,0,0,0,0,0,0,0,0,0,
0,0,0,0,0,0,0,0,0,0,0,0,0,0,0,0,0,0,0,0,
0,0,0,0,0,0,0,0,0,0,0,0,0,0,0,0,0,0,0,4,
0,0,0,0,0,0,0,0,0,0,0,0,0,0,0,0,0,0,4,0
</data>
 </layer>
 <layer id="2" name="Building.1" class="Building" width="20" height="20">
  <data encoding="csv">
0,0,0,0,0,0,0,0,0,0,0,0,0,0,0,0,0,0,0,0,
0,0,0,0,0,0,0,0,0,0,0,0,0,0,0,0,0,0,0,0,
0,0,0,0,0,0,0,0,0,0,0,0,0,0,0,0,0,0,0,0,
0,0,0,0,0,0,0,0,0,0,0,0,0,0,0,0,0,0,0,0,
0,0,0,0,0,0,0,0,0,0,0,0,0,0,0,0,0,0,0,0,
0,0,0,0,0,0,0,0,0,0,0,0,0,0,0,0,0,0,0,0,
0,0,0,0,0,0,0,0,0,0,0,0,0,0,0,0,0,0,0,0,
0,0,0,0,0,0,0,0,0,0,0,0,0,0,0,0,0,0,0,0,
0,0,0,0,0,0,0,0,0,0,0,0,0,0,0,0,0,0,0,0,
0,0,0,0,0,0,0,0,0,0,0,0,0,0,0,0,0,0,0,0,
0,0,0,0,0,0,0,0,0,0,0,0,0,0,0,0,0,0,0,0,
0,0,0,0,0,0,0,0,0,0,0,0,0,0,0,0,0,0,0,0,
0,0,0,0,0,0,0,0,0,0,0,0,0,0,0,0,0,0,0,0,
0,0,0,0,0,0,0,0,0,0,0,0,0,0,0,0,0,0,0,0,
0,0,0,0,0,0,0,0,0,0,0,0,0,0,0,0,0,0,0,0,
0,0,0,0,0,0,0,0,0,0,0,0,0,0,0,0,0,0,0,0,
0,0,0,0,0,0,0,0,0,0,0,0,0,0,0,0,0,0,0,0,
0,0,0,0,0,0,0,0,0,0,0,0,0,0,0,0,0,0,0,0,
0,0,0,0,0,0,0,0,0,0,0,0,0,0,0,0,0,0,0,0,
0,0,0,0,0,0,0,0,0,0,0,0,0,0,0,0,0,0,0,0
</data>
 </layer>
</map>
